X:11
T:Owen's Attic
C:Bob Massie
H:1996
N:For Owen Tierney - Attic Record
M:6/8
L:1/4
Q:1/4=180     %Tempo
K:G
DEG B3 |edB d3 |g3 edB |dBG AGE |
DEG B3 |edB d3 |ged B2 D |EGG G3 |
DEG B3 |edB d3 |g3 edB |dBG AGE |
DEG B3 |edB d3 |ged B2 A |BGG G3 |
gag edB |deB d3 |DGB cBA |BGE E3 |
g3 edB |deB d3 |ged B2 A |BGG G3 |
gag edB |deB d3 |DGB cBA |BGE E3 |
gfe def |gdc B3 |ged B2 A |BGG G3 |]
